X:1
T:Title
%%score ( 1 2 ) { 3 | 4 }
L:1/8
Q:1/4=112
M:3/4
K:C
V:1 treble nm="Grand Piano, Soprano"
V:2 treble 
V:3 treble nm="Choir Pad, Indre, Carey Bonner"
V:4 bass 
V:1
 z2 c4 | [FA]>[GB] [Gc]2 [EG]2 | [CE]2 [B,F]2 [CG]2 | [CA]2 [DG]>[DF] [CE]2 | [B,D]2 [CE]2 [CG]2 | %5
 [B,D]2 [CE]2 [CG]2 | [B,D]2 [B,G]2 [DG]2 | [DA]2 [DB]4 | z2 c4 | [EA]>[EB] [Ec]2 G2 | %10
 [CE]2 [CF]2 [EG]2 | [FA]2 [CG]>[B,F] [CE]2 | [B,D]2 [CE]2 [D^F]2 | [DG]2 [Dc]2 [DB]2 | %14
 [EA]2 [DB]2 [DG]2 | [^FA]2 G4 | G2 [Gd]4 | [GB]>G [Gd]2 [GB]2 | G2 [Gd]2 [Gc]2 | %19
 [Gd]2 [Ge]>[Fd] [Ec]2 | [EG]2 [FA]2 [GB]2 | [Gc]2 [Ge]2 [Ge]2 | z [Ad] [Ge]2 [Gc]2 | %23
 [Fd]2 [Ec]4- | [Ec]4 z2 |] %25
V:2
 G2 E2 G2 | x6 | x6 | x6 | x6 | x6 | x6 | x6 | [B,G]2 C2 E2 | x6 | x6 | x6 | x6 | x6 | x6 | x6 | %16
 x6 | x6 | x6 | x6 | x6 | x6 | x6 | x6 | x6 |] %25
V:3
 G,2 C4 | C>D C2 C2 | G,2 G,2 C2 | C2 D>[K:bass]G, G,2 | G,2 G,2 G,2 | G,2 G,2 G,2 | G,2 G,2 G,2 | %7
 ^F,2 G,2 G,,2 | G,>F, G,4 | z z/[K:treble] C/ C2 D2 | C2 C2 C2 | C2 C>[K:bass]G, G,2 | %12
 G,2 G,2 A,2 | G,2 ^F,2 G,2 | G,2 G,2 B,2 | C2 B,4 | B,2 B,4 | D>B, B,2 D2 | B,2 B,2[K:treble] C2 | %19
 B,2 C>C C2 | C2 C2 D2 | C2 B,2 C2 | z C C2 E2 | B,2 C4- | C4 z2 |] %25
V:4
 z2 C,2 E,2 | F,>F, E,2 C,2 | C,2 D,2 E,2 | F,2 B,,>B,, C,2 | G,,2 C,2 E,2 | G,,2 C,2 E,2 | %6
 z2 G,,2 B,,2 | D,2 z2 z2 | z2 E,2 C,2 | C>B, A,2 B,2 | z2 A,2 G,2 | F,2 E,>D, C,2 | G,,2 C,2 C,2 | %13
 B,,2 A,,2 B,,2 | C,2 D,2 D,2 | D,2 G,,4 | G,,2 G,4 | G,,>G,, G,2 G,2 | G,,2 G,2 E,2 | %19
 G,2 z z/ C,/ C,2 | C,2 F,2 F,2 | E,2 D,2 E,2 | z F, G,2 G,2 | G,2 C,4- | C,4 z2 |] %25

